; generated by Slic3r 1.0.0RC2 on 2014-01-20 at 14:48:23

; layer_height = 0.17
; perimeters = 2
; top_solid_layers = 2
; bottom_solid_layers = 2
; fill_density = 0.4
; perimeter_speed = 55
; infill_speed = 60
; travel_speed = 140
; nozzle_diameter = 0.3
; filament_diameter = 1.75
; extrusion_multiplier = 1
; perimeters extrusion width = 0.30mm
; infill extrusion width = 0.45mm
; solid infill extrusion width = 0.45mm
; top infill extrusion width = 0.45mm
; first layer extrusion width = 0.60mm

G21 ; set units to millimeters
M104 S200 ; set temperature
G28 ; home all axes
M109 S200 ; wait for temperature to be reached
G90 ; use absolute coordinates
G92 E0
M82 ; use absolute distances for extrusion
M106 S204
G1 F2400.000 E-2.50000
G92 E0
G1 Z0.300 F8400.000
G1 X10.870 Y6.510 F8400.000
G1 E2.50000 F2400.000
G1 X11.160 Y6.130 E2.53193 F1320.000
G1 X11.500 Y5.790 E2.56406
G1 X11.980 Y5.400 E2.60537
G1 X12.420 Y5.120 E2.64021
G1 X13.020 Y4.860 E2.68390
G1 X13.600 Y4.700 E2.72409
G1 X14.150 Y4.620 E2.76122
G1 X14.470 Y4.600 E2.78264
G1 X67.500 Y4.600 E6.32533
G1 X68.300 Y4.680 E6.37904
G1 X68.900 Y4.840 E6.42053
G1 X69.450 Y5.060 E6.46010
G1 X69.960 Y5.370 E6.49997
G1 X70.140 Y5.500 E6.51481
G1 X70.430 Y5.730 E6.53953
G1 X70.800 Y6.100 E6.57449
G1 X71.110 Y6.490 E6.60777
G1 X71.360 Y6.920 E6.64100
G1 X71.610 Y7.460 E6.68075
G1 X71.720 Y7.800 E6.70463
G1 X81.720 Y44.300 E9.23288
G1 X81.840 Y44.930 E9.27573
G1 X81.890 Y45.500 E9.31395
G1 X81.890 Y54.000 E9.88180
G1 X81.840 Y54.590 E9.92135
G1 X81.800 Y54.830 E9.93761
G1 X81.700 Y55.260 E9.96710
G1 X81.550 Y55.680 E9.99690
G1 X71.510 Y78.790 E11.68017
G1 X71.240 Y79.290 E11.71813
G1 X70.940 Y79.720 E11.75316
G1 X70.510 Y80.180 E11.79523
G1 X70.070 Y80.560 E11.83407
G1 X69.570 Y80.860 E11.87302
G1 X69.350 Y80.970 E11.88945
G1 X68.840 Y81.170 E11.92605
G1 X68.310 Y81.300 E11.96250
G1 X67.490 Y81.390 E12.01761
G1 X13.880 Y81.390 E15.59905
G1 X12.920 Y81.260 E15.66377
G1 X12.020 Y80.870 E15.72930
G1 X11.270 Y80.260 E15.79388
G1 X10.870 Y79.830 E15.83312
G1 X10.590 Y79.440 E15.86519
G1 X10.220 Y78.710 E15.91986
G1 X0.470 Y55.760 E17.58567
G1 X0.340 Y55.400 E17.61124
G1 X0.160 Y54.700 E17.65953
G1 X0.110 Y54.220 E17.69177
G1 X-0.110 Y46.600 E18.20104
G1 X-0.110 Y45.500 E18.27452
G1 X-0.090 Y45.200 E18.29461
G1 X-0.030 Y44.620 E18.33356
G1 X0.050 Y44.290 E18.35625
G1 X10.280 Y7.780 E20.88925
G1 X10.390 Y7.450 E20.91249
G1 X10.520 Y7.140 E20.93494
G1 X10.829 Y6.579 E20.97772
G1 X11.320 Y6.810 F8400.000
G1 X11.560 Y6.490 E21.00445 F1320.000
G1 X11.860 Y6.180 E21.03327
G1 X12.300 Y5.830 E21.07083
G1 X12.680 Y5.590 E21.10085
G1 X13.200 Y5.360 E21.13884
G1 X13.700 Y5.230 E21.17335
G1 X14.190 Y5.150 E21.20652
G1 X14.470 Y5.140 E21.22523
G1 X67.500 Y5.140 E24.76793
G1 X67.880 Y5.160 E24.79335
G1 X68.200 Y5.200 E24.81489
G1 X68.740 Y5.350 E24.85233
G1 X69.210 Y5.540 E24.88620
G1 X69.650 Y5.800 E24.92034
G1 X69.830 Y5.930 E24.93517
G1 X70.080 Y6.130 E24.95656
G1 X70.400 Y6.460 E24.98727
G1 X70.660 Y6.790 E25.01534
G1 X70.880 Y7.160 E25.04409
G1 X71.110 Y7.650 E25.08026
G1 X71.200 Y7.940 E25.10054
G1 X81.200 Y44.440 E27.62880
G1 X81.310 Y45.010 E27.66758
G1 X81.350 Y45.500 E27.70042
G1 X81.350 Y54.000 E28.26827
G1 X81.310 Y54.500 E28.30178
G1 X81.270 Y54.740 E28.31803
G1 X81.190 Y55.110 E28.34332
G1 X81.060 Y55.460 E28.36826
G1 X71.020 Y78.570 E30.05154
G1 X70.790 Y79.000 E30.08412
G1 X70.530 Y79.380 E30.11488
G1 X70.130 Y79.800 E30.15362
G1 X69.760 Y80.120 E30.18630
G1 X69.330 Y80.380 E30.21987
G1 X69.110 Y80.490 E30.23631
G1 X68.680 Y80.660 E30.26720
G1 X68.230 Y80.770 E30.29814
G1 X67.980 Y80.810 E30.31506
G1 X67.490 Y80.850 E30.34790
G1 X13.880 Y80.850 E33.92934
G1 X12.670 Y80.600 E34.01188
G1 X11.650 Y79.900 E34.09452
G1 X11.280 Y79.490 E34.13142
G1 X11.040 Y79.150 E34.15922
G1 X10.740 Y78.570 E34.20284
G1 X0.960 Y55.550 E35.87374
G1 X0.850 Y55.240 E35.89571
G1 X0.690 Y54.620 E35.93849
G1 X0.650 Y54.210 E35.96601
G1 X0.430 Y46.590 E36.47528
G1 X0.440 Y45.240 E36.56547
G1 X0.500 Y44.720 E36.60044
G1 X0.560 Y44.430 E36.62022
G1 X10.790 Y7.920 E39.15323
G1 X10.880 Y7.640 E39.17287
G1 X11.000 Y7.380 E39.19200
G1 X11.279 Y6.879 E39.23031
G1 X11.760 Y7.110 F8400.000
G1 X11.960 Y6.850 E39.25222 F1320.000
G1 X12.220 Y6.570 E39.27775
G1 X12.620 Y6.260 E39.31156
G1 X12.930 Y6.060 E39.33620
G1 X13.380 Y5.870 E39.36883
G1 X13.800 Y5.760 E39.39784
G1 X14.240 Y5.680 E39.42772
G1 X14.470 Y5.670 E39.44310
G1 X67.500 Y5.670 E42.98579
G1 X67.830 Y5.690 E43.00787
G1 X68.360 Y5.790 E43.04390
G1 X68.590 Y5.860 E43.05997
G1 X68.980 Y6.020 E43.08813
G1 X69.510 Y6.360 E43.13019
G1 X69.720 Y6.530 E43.14824
G1 X70.010 Y6.820 E43.17564
G1 X70.220 Y7.100 E43.19902
G1 X70.400 Y7.400 E43.22240
G1 X70.610 Y7.840 E43.25497
G1 X70.690 Y8.080 E43.27187
G1 X80.690 Y44.580 E45.80012
G1 X80.780 Y45.100 E45.83538
G1 X80.820 Y45.500 E45.86223
G1 X80.820 Y54.000 E46.43008
G1 X80.740 Y54.660 E46.47449
G1 X80.670 Y54.960 E46.49507
G1 X80.570 Y55.250 E46.51557
G1 X70.530 Y78.360 E48.19884
G1 X70.340 Y78.710 E48.22545
G1 X70.110 Y79.050 E48.25287
G1 X69.750 Y79.420 E48.28736
G1 X69.440 Y79.690 E48.31482
G1 X69.090 Y79.900 E48.34209
G1 X68.520 Y80.150 E48.38367
G1 X68.140 Y80.240 E48.40976
G1 X67.490 Y80.320 E48.45351
G1 X13.880 Y80.320 E52.03495
G1 X12.880 Y80.110 E52.10321
G1 X12.040 Y79.530 E52.17140
G1 X11.690 Y79.140 E52.20641
G1 X11.490 Y78.870 E52.22886
G1 X11.230 Y78.350 E52.26770
G1 X1.360 Y55.090 E53.95570
G1 X1.220 Y54.530 E53.99426
G1 X1.190 Y54.190 E54.01706
G1 X0.960 Y46.500 E54.53103
G1 X0.960 Y45.500 E54.59783
G1 X1.020 Y44.810 E54.64410
G1 X1.080 Y44.580 E54.65998
G1 X11.310 Y8.070 E57.19298
G1 X11.380 Y7.840 E57.20905
G1 X11.480 Y7.620 E57.22519
G1 X11.719 Y7.179 E57.25869
G1 F2400.000 E54.75869
G92 E0
G1 X43.164 Y10.164 F8400.000
G1 E2.50000 F2400.000
G1 X48.836 Y10.164 E2.87887 F1320.000
G1 X48.836 Y30.836 E4.25982
G1 X43.164 Y30.836 E4.63869
G1 X43.164 Y10.245 E6.01427
G1 X43.700 Y10.700 F8400.000
G1 X48.300 Y10.700 E6.32158 F1320.000
G1 X48.300 Y30.300 E7.63096
G1 X43.700 Y30.300 E7.93827
G1 X43.700 Y10.780 E9.24229
G1 X43.700 Y10.164 F8400.000
G1 F2400.000 E6.74229
G92 E0
G1 X38.836 Y10.164 F8400.000
G1 E2.50000 F2400.000
G1 X38.836 Y30.836 E3.88095 F1320.000
G1 X33.164 Y30.836 E4.25982
G1 X33.164 Y10.164 E5.64077
G1 X38.755 Y10.164 E6.01427
G1 X38.300 Y10.700 F8400.000
G1 X38.300 Y30.300 E7.32366 F1320.000
G1 X33.700 Y30.300 E7.63096
G1 X33.700 Y10.700 E8.94035
G1 X38.220 Y10.700 E9.24229
G1 X38.836 Y10.700 F8400.000
G1 F2400.000 E6.74229
G92 E0
G1 X22.836 Y10.164 F8400.000
G1 E2.50000 F2400.000
G1 X22.836 Y30.836 E3.88095 F1320.000
G1 X17.164 Y30.836 E4.25982
G1 X17.164 Y10.164 E5.64077
G1 X22.755 Y10.164 E6.01427
G1 X22.300 Y10.700 F8400.000
G1 X22.300 Y30.300 E7.32366 F1320.000
G1 X17.700 Y30.300 E7.63096
G1 X17.700 Y10.700 E8.94035
G1 X22.220 Y10.700 E9.24229
G1 X22.836 Y10.700 F8400.000
G1 F2400.000 E6.74229
G92 E0
G1 X59.164 Y10.164 F8400.000
G1 E2.50000 F2400.000
G1 X64.836 Y10.164 E2.87887 F1320.000
G1 X64.836 Y30.836 E4.25982
G1 X59.164 Y30.836 E4.63869
G1 X59.164 Y10.245 E6.01427
G1 X59.700 Y10.700 F8400.000
G1 X64.300 Y10.700 E6.32158 F1320.000
G1 X64.300 Y30.300 E7.63096
G1 X59.700 Y30.300 E7.93827
G1 X59.700 Y10.780 E9.24229
G1 X59.700 Y10.164 F8400.000
G1 F2400.000 E6.74229
G92 E0
G1 X53.558 Y28.866 F8400.000
G1 E2.50000 F2400.000
G1 X53.988 Y29.083 E2.53216 F1320.000
G1 X54.375 Y29.369 E2.56433
G1 X54.709 Y29.717 E2.59649
G1 X54.978 Y30.116 E2.62866
G1 X55.176 Y30.554 E2.66082
G1 X55.298 Y31.020 E2.69299
G1 X55.339 Y31.500 E2.72515
G1 X55.298 Y31.980 E2.75732
G1 X55.176 Y32.446 E2.78948
G1 X54.978 Y32.884 E2.82165
G1 X54.709 Y33.283 E2.85381
G1 X54.375 Y33.631 E2.88598
G1 X53.988 Y33.917 E2.91814
G1 X53.558 Y34.134 E2.95030
G1 X53.098 Y34.275 E2.98247
G1 X52.620 Y34.336 E3.01463
G1 X52.139 Y34.316 E3.04680
G1 X51.669 Y34.214 E3.07896
G1 X51.222 Y34.035 E3.11113
G1 X50.812 Y33.782 E3.14329
G1 X50.451 Y33.464 E3.17546
G1 X50.148 Y33.090 E3.20762
G1 X49.913 Y32.669 E3.23979
G1 X49.753 Y32.215 E3.27195
G1 X49.675 Y31.758 E3.30292
G1 X49.664 Y31.500 E3.32019
G1 X49.675 Y31.242 E3.33747
G1 X49.753 Y30.785 E3.36844
G1 X49.913 Y30.331 E3.40061
G1 X50.148 Y29.910 E3.43277
G1 X50.451 Y29.536 E3.46493
G1 X50.812 Y29.218 E3.49710
G1 X51.222 Y28.965 E3.52926
G1 X51.669 Y28.786 E3.56143
G1 X52.139 Y28.684 E3.59359
G1 X52.620 Y28.664 E3.62576
G1 X53.098 Y28.725 E3.65792
G1 X53.482 Y28.843 E3.68472
G1 X53.358 Y29.365 F8400.000
G1 X53.706 Y29.541 E3.71079 F1320.000
G1 X54.020 Y29.773 E3.73687
G1 X54.290 Y30.054 E3.76294
G1 X54.509 Y30.378 E3.78901
G1 X54.670 Y30.733 E3.81509
G1 X54.768 Y31.111 E3.84116
G1 X54.801 Y31.500 E3.86723
G1 X54.768 Y31.889 E3.89331
G1 X54.670 Y32.267 E3.91938
G1 X54.509 Y32.622 E3.94545
G1 X54.290 Y32.946 E3.97153
G1 X54.020 Y33.227 E3.99760
G1 X53.706 Y33.459 E4.02368
G1 X53.358 Y33.635 E4.04975
G1 X52.985 Y33.749 E4.07582
G1 X52.598 Y33.799 E4.10190
G1 X52.208 Y33.782 E4.12797
G1 X51.826 Y33.700 E4.15404
G1 X51.464 Y33.555 E4.18012
G1 X51.132 Y33.350 E4.20619
G1 X50.839 Y33.092 E4.23226
G1 X50.594 Y32.789 E4.25834
G1 X50.403 Y32.448 E4.28441
G1 X50.273 Y32.080 E4.31049
G1 X50.208 Y31.701 E4.33613
G1 X50.200 Y31.500 E4.34960
G1 X50.208 Y31.299 E4.36307
G1 X50.273 Y30.920 E4.38872
G1 X50.403 Y30.552 E4.41479
G1 X50.594 Y30.211 E4.44087
G1 X50.839 Y29.908 E4.46694
G1 X51.132 Y29.650 E4.49301
G1 X51.464 Y29.445 E4.51909
G1 X51.826 Y29.300 E4.54516
G1 X52.208 Y29.218 E4.57123
G1 X52.598 Y29.201 E4.59731
G1 X52.985 Y29.251 E4.62338
G1 X53.281 Y29.341 E4.64409
G1 X53.672 Y29.133 F8400.000
G1 F2400.000 E2.14409
G92 E0
G1 X32.298 Y31.020 F8400.000
G1 E2.50000 F2400.000
G1 X32.339 Y31.500 E2.53216 F1320.000
G1 X32.298 Y31.980 E2.56433
G1 X32.176 Y32.446 E2.59649
G1 X31.978 Y32.884 E2.62866
G1 X31.709 Y33.283 E2.66082
G1 X31.375 Y33.631 E2.69299
G1 X30.988 Y33.917 E2.72515
G1 X30.558 Y34.134 E2.75732
G1 X30.098 Y34.275 E2.78948
G1 X29.620 Y34.336 E2.82165
G1 X29.139 Y34.316 E2.85381
G1 X28.669 Y34.214 E2.88598
G1 X28.222 Y34.035 E2.91814
G1 X27.812 Y33.782 E2.95030
G1 X27.451 Y33.464 E2.98247
G1 X27.148 Y33.090 E3.01463
G1 X26.913 Y32.669 E3.04680
G1 X26.753 Y32.215 E3.07896
G1 X26.675 Y31.758 E3.10994
G1 X26.664 Y31.500 E3.12721
G1 X26.675 Y31.242 E3.14448
G1 X26.753 Y30.785 E3.17545
G1 X26.913 Y30.331 E3.20762
G1 X27.148 Y29.910 E3.23978
G1 X27.451 Y29.536 E3.27195
G1 X27.812 Y29.218 E3.30411
G1 X28.222 Y28.965 E3.33628
G1 X28.669 Y28.786 E3.36844
G1 X29.139 Y28.684 E3.40061
G1 X29.620 Y28.664 E3.43277
G1 X30.098 Y28.725 E3.46494
G1 X30.558 Y28.866 E3.49710
G1 X30.988 Y29.083 E3.52926
G1 X31.375 Y29.369 E3.56143
G1 X31.709 Y29.717 E3.59359
G1 X31.978 Y30.116 E3.62576
G1 X32.176 Y30.554 E3.65792
G1 X32.278 Y30.943 E3.68472
G1 X31.768 Y31.111 F8400.000
G1 X31.801 Y31.500 E3.71079 F1320.000
G1 X31.768 Y31.889 E3.73687
G1 X31.670 Y32.267 E3.76294
G1 X31.509 Y32.622 E3.78901
G1 X31.290 Y32.946 E3.81509
G1 X31.020 Y33.227 E3.84116
G1 X30.706 Y33.459 E3.86723
G1 X30.358 Y33.635 E3.89331
G1 X29.985 Y33.749 E3.91938
G1 X29.598 Y33.799 E3.94546
G1 X29.208 Y33.782 E3.97153
G1 X28.826 Y33.700 E3.99760
G1 X28.464 Y33.555 E4.02368
G1 X28.132 Y33.350 E4.04975
G1 X27.839 Y33.092 E4.07582
G1 X27.594 Y32.789 E4.10190
G1 X27.403 Y32.448 E4.12797
G1 X27.273 Y32.080 E4.15404
G1 X27.208 Y31.701 E4.17969
G1 X27.200 Y31.500 E4.19316
G1 X27.208 Y31.299 E4.20663
G1 X27.273 Y30.920 E4.23228
G1 X27.403 Y30.552 E4.25835
G1 X27.594 Y30.211 E4.28442
G1 X27.839 Y29.908 E4.31050
G1 X28.132 Y29.650 E4.33657
G1 X28.464 Y29.445 E4.36265
G1 X28.826 Y29.300 E4.38872
G1 X29.208 Y29.218 E4.41479
G1 X29.598 Y29.201 E4.44087
G1 X29.985 Y29.251 E4.46694
G1 X30.358 Y29.365 E4.49301
G1 X30.706 Y29.541 E4.51909
G1 X31.020 Y29.773 E4.54516
G1 X31.290 Y30.054 E4.57123
G1 X31.509 Y30.378 E4.59731
G1 X31.670 Y30.733 E4.62338
G1 X31.748 Y31.033 E4.64409
G1 X32.130 Y31.257 F8400.000
G1 F2400.000 E2.14409
G92 E0
G1 X29.620 Y51.664 F8400.000
G1 E2.50000 F2400.000
G1 X30.098 Y51.725 E2.53216 F1320.000
G1 X30.558 Y51.866 E2.56433
G1 X30.988 Y52.083 E2.59649
G1 X31.375 Y52.369 E2.62866
G1 X31.709 Y52.717 E2.66082
G1 X31.978 Y53.116 E2.69299
G1 X32.176 Y53.554 E2.72515
G1 X32.298 Y54.020 E2.75732
G1 X32.339 Y54.500 E2.78948
G1 X32.298 Y54.980 E2.82164
G1 X32.176 Y55.446 E2.85381
G1 X31.978 Y55.884 E2.88597
G1 X31.709 Y56.283 E2.91814
G1 X31.375 Y56.631 E2.95030
G1 X30.988 Y56.917 E2.98247
G1 X30.558 Y57.134 E3.01463
G1 X30.098 Y57.275 E3.04680
G1 X29.620 Y57.336 E3.07896
G1 X29.139 Y57.316 E3.11113
G1 X28.669 Y57.214 E3.14329
G1 X28.222 Y57.035 E3.17546
G1 X27.812 Y56.782 E3.20762
G1 X27.451 Y56.464 E3.23979
G1 X27.148 Y56.090 E3.27195
G1 X26.913 Y55.669 E3.30411
G1 X26.753 Y55.215 E3.33628
G1 X26.675 Y54.758 E3.36725
G1 X26.664 Y54.500 E3.38452
G1 X26.675 Y54.242 E3.40180
G1 X26.753 Y53.785 E3.43277
G1 X26.913 Y53.331 E3.46493
G1 X27.148 Y52.910 E3.49710
G1 X27.451 Y52.536 E3.52926
G1 X27.812 Y52.218 E3.56143
G1 X28.222 Y51.965 E3.59359
G1 X28.669 Y51.786 E3.62576
G1 X29.139 Y51.684 E3.65792
G1 X29.540 Y51.667 E3.68472
G1 X29.598 Y52.201 F8400.000
G1 X29.985 Y52.251 E3.71079 F1320.000
G1 X30.358 Y52.365 E3.73687
G1 X30.706 Y52.541 E3.76294
G1 X31.020 Y52.773 E3.78901
G1 X31.290 Y53.054 E3.81509
G1 X31.509 Y53.378 E3.84116
G1 X31.670 Y53.733 E3.86723
G1 X31.768 Y54.111 E3.89331
G1 X31.801 Y54.500 E3.91938
G1 X31.768 Y54.889 E3.94545
G1 X31.670 Y55.267 E3.97153
G1 X31.509 Y55.622 E3.99760
G1 X31.290 Y55.946 E4.02368
G1 X31.020 Y56.227 E4.04975
G1 X30.706 Y56.459 E4.07582
G1 X30.358 Y56.635 E4.10190
G1 X29.985 Y56.749 E4.12797
G1 X29.598 Y56.799 E4.15404
G1 X29.208 Y56.782 E4.18012
G1 X28.826 Y56.700 E4.20619
G1 X28.464 Y56.555 E4.23226
G1 X28.132 Y56.350 E4.25834
G1 X27.839 Y56.092 E4.28441
G1 X27.594 Y55.789 E4.31048
G1 X27.403 Y55.448 E4.33656
G1 X27.273 Y55.080 E4.36263
G1 X27.208 Y54.701 E4.38828
G1 X27.200 Y54.500 E4.40175
G1 X27.208 Y54.299 E4.41522
G1 X27.273 Y53.920 E4.44086
G1 X27.403 Y53.552 E4.46694
G1 X27.594 Y53.211 E4.49301
G1 X27.839 Y52.908 E4.51909
G1 X28.132 Y52.650 E4.54516
G1 X28.464 Y52.445 E4.57123
G1 X28.826 Y52.300 E4.59731
G1 X29.208 Y52.218 E4.62338
G1 X29.517 Y52.204 E4.64409
G1 X29.816 Y51.878 F8400.000
G1 F2400.000 E2.14409
G92 E0
G1 X49.675 Y54.242 F8400.000
G1 E2.50000 F2400.000
G1 X49.753 Y53.785 E2.53098 F1320.000
G1 X49.913 Y53.331 E2.56314
G1 X50.148 Y52.910 E2.59530
G1 X50.451 Y52.536 E2.62747
G1 X50.812 Y52.218 E2.65963
G1 X51.222 Y51.965 E2.69180
G1 X51.669 Y51.786 E2.72396
G1 X52.139 Y51.684 E2.75613
G1 X52.620 Y51.664 E2.78829
G1 X53.098 Y51.725 E2.82046
G1 X53.558 Y51.866 E2.85262
G1 X53.988 Y52.083 E2.88478
G1 X54.375 Y52.369 E2.91695
G1 X54.709 Y52.717 E2.94911
G1 X54.978 Y53.116 E2.98128
G1 X55.176 Y53.554 E3.01344
G1 X55.298 Y54.020 E3.04561
G1 X55.339 Y54.500 E3.07777
G1 X55.298 Y54.980 E3.10994
G1 X55.176 Y55.446 E3.14210
G1 X54.978 Y55.884 E3.17427
G1 X54.709 Y56.283 E3.20643
G1 X54.375 Y56.631 E3.23860
G1 X53.988 Y56.917 E3.27076
G1 X53.558 Y57.134 E3.30292
G1 X53.098 Y57.275 E3.33509
G1 X52.620 Y57.336 E3.36725
G1 X52.139 Y57.316 E3.39942
G1 X51.669 Y57.214 E3.43158
G1 X51.222 Y57.035 E3.46375
G1 X50.812 Y56.782 E3.49591
G1 X50.451 Y56.464 E3.52808
G1 X50.148 Y56.090 E3.56024
G1 X49.913 Y55.669 E3.59241
G1 X49.753 Y55.215 E3.62457
G1 X49.675 Y54.758 E3.65554
G1 X49.671 Y54.322 E3.68469
G1 X50.208 Y54.299 F8400.000
G1 X50.273 Y53.920 E3.71034 F1320.000
G1 X50.403 Y53.552 E3.73641
G1 X50.594 Y53.211 E3.76249
G1 X50.839 Y52.908 E3.78856
G1 X51.132 Y52.650 E3.81464
G1 X51.464 Y52.445 E3.84071
G1 X51.826 Y52.300 E3.86678
G1 X52.208 Y52.218 E3.89286
G1 X52.598 Y52.201 E3.91893
G1 X52.985 Y52.251 E3.94500
G1 X53.358 Y52.365 E3.97108
G1 X53.706 Y52.541 E3.99715
G1 X54.020 Y52.773 E4.02322
G1 X54.290 Y53.054 E4.04930
G1 X54.509 Y53.378 E4.07537
G1 X54.670 Y53.733 E4.10144
G1 X54.768 Y54.111 E4.12752
G1 X54.801 Y54.500 E4.15359
G1 X54.768 Y54.889 E4.17966
G1 X54.670 Y55.267 E4.20574
G1 X54.509 Y55.622 E4.23181
G1 X54.290 Y55.946 E4.25789
G1 X54.020 Y56.227 E4.28396
G1 X53.706 Y56.459 E4.31003
G1 X53.358 Y56.635 E4.33611
G1 X52.985 Y56.749 E4.36218
G1 X52.598 Y56.799 E4.38825
